X:65
T:Gan Ainm
S:Mairead Mooney, Donegal (fiddle)
D:Private tape
R:Barn Dance
N:As played
Z:Bernie Stocks
M:4/4
K:D
fg || afge ~f3e | defd ~B2ef | (3.g.g.e fd e2d2 | (3.c.d.c (3.B.c.B A2fg |
afge ~f3e | defd ~B2ef | (3.g.g.e fd e2a2 |1 (3.A.A.A Bc defg
:|2 (3.A.A.A  Bc d2d2 || DEFG A2A2 | ABde ~f2a2 | gefd e2dB | ABAG ~E2FE |
DEFG A2A2 | ABde ~f2a2 | gefd e2a2 |1 (3.A.A.A Bc d2d2 :|2 (3.A.A.A Bc defg ||
<end>
<start>
